X: 3
T: The Milky Way
R: reel
M: 4/4
L: 1/8
K: Dmaj
|:D2 (3FED FA A2|d2 fd efdA|D2 (3FED FA A2|BF F2 BFAF|D2 (3FED FAAB|d2 fd ef d2|efdB BAFB|AFEG FD D2 :||:efdB BAFA|d2 fd ef d2|efdB BAFB|AFEG FD D2|efdB BAFA|d2 fd efde|f2 df efdB|AFEG FD D2:|


Tune 2241	Setting 15611

